web/ui/src/components/workflow/workflow-editor/svgs/required-icon.svg

<?xml version="1.0" encoding="UTF-8"?>
<svg width="6px" height="6px" viewBox="0 0 6 6" version="1.1" xmlns="http://www.w3.org/2000/svg" xmlns:xlink="http://www.w3.org/1999/xlink">
    <title>路径备份 13</title>
    <g id="页面-1" stroke="none" stroke-width="1" fill="none" fill-rule="evenodd">
        <g id="建木CI-图形编辑器-最新样式" transform="translate(-1055.000000, -448.000000)" fill="#FF3838">
            <g id="路径备份-13" transform="translate(1055.000000, 448.000000)">
                <path d="M3.40214405,2.62198501 C3.70317053,2.47681601 4.00121555,2.32554411 4.29609448,2.16826301 C4.57807885,2.01677235 4.8060662,1.90352935 4.97405689,1.83378363 C5.14204757,1.76478789 5.27404026,1.7272902 5.3760346,1.72729021 C5.54402527,1.72729021 5.68801729,1.78353674 5.8140103,1.90352933 C5.93400365,2.02352193 6,2.16826299 6,2.34450213 C6,2.44574588 5.97000166,2.55223932 5.91000499,2.6594827 C5.85000832,2.76672607 5.78401198,2.83647177 5.71801563,2.86796985 C5.10004991,3.12595393 4.41008816,3.31494227 3.66612942,3.42818529 C3.80412177,3.55417751 3.96611279,3.73116659 4.16410181,3.95165299 C4.36209083,4.17213939 4.46408518,4.28538241 4.4760845,4.30413124 C4.54808051,4.41137462 4.65007486,4.54411643 4.78206753,4.70160673 C4.91406021,4.85909701 5.00405522,4.97908962 5.05205256,5.06683419 C5.10004991,5.15532873 5.13004823,5.26182215 5.13004823,5.38856434 C5.13080246,5.54690085 5.06814547,5.69895114 4.95605789,5.81078831 C4.8389499,5.93305198 4.67528349,5.99960923 4.50608285,5.99377701 C4.32609283,5.99377701 4.11610447,5.84228635 3.8881171,5.54605463 C3.66012974,5.25582253 3.36014639,4.72110552 3.00016635,3.94565336 C2.63418665,4.63861062 2.38820029,5.10508185 2.26820694,5.32556823 C2.14221392,5.54605463 2.02222057,5.71554418 1.9082269,5.82953714 C1.80527144,5.93833682 1.6620398,5.9999152 1.51224886,5.99977665 C1.34252604,6.00453748 1.17960306,5.93298392 1.06827349,5.80478866 C0.960271858,5.69268365 0.898194548,5.54418067 0.894283133,5.38856434 C0.894283133,5.24982291 0.918281796,5.14857915 0.96627914,5.07958341 C1.41025453,4.44962228 1.87222889,3.89465652 2.35220228,3.43493487 C1.98933011,3.37639398 1.62904075,3.30283536 1.27226217,3.21444847 C0.925219277,3.12169567 0.586155735,3.00131883 0.258318406,2.85447068 C0.198321739,2.82372258 0.144324734,2.75397688 0.0903277107,2.64673349 C0.0315679154,2.55912199 0.000237442555,2.45599317 0.000332701383,2.35050177 C-0.00537651552,2.18334157 0.0626261987,2.02211035 0.186322399,1.90952897 C0.298052519,1.79472681 0.452117585,1.73098549 0.612298765,1.73328984 C0.726292437,1.73328984 0.870284452,1.77078752 1.04427481,1.84053322 C1.21826517,1.9155286 1.43425319,2.01677235 1.70423822,2.16151343 C1.97422324,2.30025486 2.27420661,2.45774515 2.61618765,2.62798464 C2.55619098,2.30700445 2.50219398,1.94102701 2.46019629,1.53155229 C2.41819863,1.12207755 2.40019963,0.838595036 2.40019963,0.687104376 C2.40019963,0.498116034 2.45419663,0.340625749 2.56819031,0.207883938 C2.67307389,0.0732213923 2.83552318,-0.00383027994 3.00616601,0.000146747454 C3.18015637,0.000146747454 3.32414838,0.0691424853 3.43814206,0.201884314 C3.55213573,0.340625749 3.60613273,0.516864883 3.60613275,0.737351282 C3.60613275,0.800347396 3.59413341,0.920339999 3.58213407,1.09732908 C3.57013473,1.27956783 3.54013641,1.49405461 3.51013806,1.74603904 C3.47414006,2.00402312 3.43814206,2.29350528 3.40214405,2.62198501 Z" id="路径备份-10"></path>
            </g>
        </g>
    </g>
</svg>

<svg height="6" viewBox="0 0 6 6" width="6" xmlns="http://www.w3.org/2000/svg"><path d="m3.40214405 2.62198501c.30102648-.145169.5990715-.2964409.89395043-.453722.28198437-.15149066.50997172-.26473366.67796241-.33447938.16799068-.06899574.29998337-.10649343.40197771-.10649342.16799067 0 .31198269.05624653.4379757.17623912.11999335.1199926.1859897.26473366.1859897.4409728 0 .10124375-.02999834.20773719-.08999501.31498057-.05999667.10724337-.12599301.17698907-.19198936.20848715-.61796572.25798408-1.30792747.44697242-2.05188621.56021544.13799235.12599222.29998337.3029813.49797239.5234677s.29998337.33372942.31198269.35247825c.07199601.10724338.17399036.23998519.30598303.39747549.13199268.15749028.22198769.27748289.26998503.36522746.04799735.08849454.07799567.19498796.07799567.32173015.00075423.15833651-.06190276.3103868-.17399034.42222397-.11710799.12226367-.2807744.18882092-.44997504.1829887-.17999002 0-.38997838-.15149066-.61796575-.44772238-.22798736-.2902321-.52797071-.82494911-.88795075-1.60040127-.3659797.69295726-.61196606 1.15942849-.73195941 1.37991487-.12599302.2204864-.24598637.38997595-.35998004.50396891-.10295546.10879968-.2461871.17037806-.39597804.17023951-.16972282.00476083-.3326458-.06679273-.44397537-.19498799-.10800163-.11210501-.17007894-.26060799-.17399036-.41622432 0-.13874143.02399867-.23998519.07199601-.30898093.44397539-.62996113.90594975-1.18492689 1.38592314-1.64464854-.36287217-.05854089-.72316153-.13209951-1.07994011-.2204864-.34704289-.0927528-.68610644-.21312964-1.01394376-.35997779-.05999667-.0307481-.11399368-.1004938-.1679907-.20773719-.05875979-.0876115-.09009027-.19074032-.08999501-.29623172-.00570922-.1671602.0622935-.32839142.1859897-.4409728.11173012-.11480216.26579519-.17854348.42597637-.17623913.11399367 0 .25798568.03749768.43197604.10724338.17399036.07499538.38997838.17623913.65996341.32098021.26998502.13874143.56996839.29623172.91194943.46647121-.05999667-.32098019-.11399367-.68695763-.15599136-1.09643235-.04199766-.40947474-.05999666-.69295725-.05999666-.84444791 0-.18898835.053997-.34647863.16799068-.47922044.10488358-.13466255.26733287-.21171422.4379757-.20773719.17399036 0 .31798237.06899574.43197605.20173756.11399367.13874144.16799067.31498057.16799069.53546697 0 .06299612-.01199934.18298872-.02399868.3599778-.01199934.18223875-.04199766.39672553-.07199601.64870996-.035998.25798408-.071996.54746624-.10799401.87594597z" fill="#ff3838" fill-rule="evenodd"/></svg>
